X:1
T:Fairies' Hornpipe, The
R:hornpipe
S:Seamus Ennis
E:6
M:C|
K:G
DE|G{A}G{F}G BdcB|ABAG G2Bc|dgfg edcB|cedB A2Bc|dggf g2fe|dedc B2AG|
AB (3cBA dcAF|G2GF G2:|Bc|dggf g2fe|dedc B2AG|AB (3cBA edcB|
Add^c d2B=c|dggf g2fe|dedc B2AG|AB (3cBA dcAF|G2GF G2:|
